X:44
T:Kate's Fancy
R:reel
C:Paul Cranford
O:Cape Breton Island
S:http://www.cranfordpub.com
D:The Lighthouse, Paul Cranford, David Greenberg, tunes Till Dawn, 2000
B:The Lighthouse Collection, Paul Stewart Cranford
Z:psc, (re-formatted,updated 9/20/04)
N:Composed for Kate Dunlay
H:                                                    copyrights Cranford Publications, SOCAN
L:1/8
Q:333
M:C|
K:A
B|AF F/F/F AEED|CEAc ec c2|e^def ecAc|Bagf ecBc|
AF F/F/F AEED|CEAc ec c2|eagf ecAc|BdcB A2 A:|
|:e|af f/f/f aece|fagf ecce|af f/f/f ecAc|[1BdcB AFFe|
af f/f/f aece|fagf eccB|AF F/F/F AEEA|BdcB A2 A:|
[2BdcB AFFB|AF F/F/F AEED|CEAc ec c2|eagf ecAc|BdcB A2 A:|
|:B|Ac c/c/c ec c/c/c|fagf eccB|Ac c/c/c eccA|BdcB AFFB|
Ac c/c/c ec c/c/c|fagf ecce|af f/f/f ecAc|BdcB A2 A:|
|:e|a2 fa ecce|agfa ecce|a2 fa eccA|[1BdcB AFFe|
a2 fa ecce|agfa eccB|AF F/F/F AEEA|BdcB A2 A:|
[2BdcB AFFB|AF F/F/F AEED|CEAc ec c2|eagf ecAc|BdcB A2 A:|
